assets/chat.svg

<svg xmlns="http://www.w3.org/2000/svg" fill="none" viewBox="0 0 28 27">
  <path stroke="#2A2238" stroke-width="1.5" d="m3.4054 24.9877.36806-1.2356c.32672-1.0968.55067-2.2216.66894-3.3599.01355-.1455-.00498-.2923-.0543-.4299-.04957-.1384-.12901-.2641-.23268-.3682l-.75002 5.3936Zm0 0 1.25603-.2908m-1.25603.2908 1.25603-.2908m0 0c2.50052-.579 4.04846-1.2542 4.77918-1.6243h.00002m-4.7792 1.6243 4.7792-1.6243m0 0c.2195-.1112.47229-.1375.70997-.074l.0005.0001m-.71047.0739.71047-.0739m0 0c1.2555.3347 2.5495.5033 3.8489.5013l-3.8489-.5013Zm-6.91646 1.6205.00477-.0139.00421-.014.00095-.0032c.4465-1.2995.81367-2.8013.9495-4.2164l.03373-.3515-.24932-.2499C1.95599 17.7429.75 15.1105.75 12.25.75 5.98967 6.58549.75 14 .75c7.4145 0 13.25 5.23967 13.25 11.5 0 6.2603-5.8355 11.5-13.25 11.5h-.001c-1.321.0018-2.6366-.1697-3.913-.5102l-.27643-.0737-.25532.1291c-.84952.4297-2.74305 1.2455-5.8765 1.8674-.22944.0455-.45929.0888-.68954.1299.08668-.2227.16884-.4472.24643-.6733ZM14.0012 23.5C21.3152 23.4994 27 18.3386 27 12.25 27 6.16291 21.3146 1 14 1 6.68537 1 1 6.16291 1 12.25c0 2.7882 1.17378 5.3567 3.15516 7.3438L14.0012 23.5Z"/>
</svg>

<svg width="28" height="27" viewBox="0 0 28 27" fill="none" xmlns="http://www.w3.org/2000/svg">
<path d="M3.4054 24.9877L3.77346 23.7521C4.10018 22.6553 4.32413 21.5305 4.4424 20.3922C4.45595 20.2467 4.43742 20.0999 4.3881 19.9623C4.33853 19.8239 4.25909 19.6982 4.15542 19.5941L3.4054 24.9877ZM3.4054 24.9877L4.66143 24.6969M3.4054 24.9877L4.66143 24.6969M4.66143 24.6969C7.16195 24.1179 8.70989 23.4427 9.44061 23.0726L9.44063 23.0726M4.66143 24.6969L9.44063 23.0726M9.44063 23.0726C9.66013 22.9614 9.91292 22.9351 10.1506 22.9986L10.1511 22.9987M9.44063 23.0726L10.1511 22.9987M10.1511 22.9987C11.4066 23.3334 12.7006 23.502 14 23.5L10.1511 22.9987ZM3.23464 24.6192L3.23941 24.6053L3.24362 24.5913L3.24457 24.5881C3.69107 23.2886 4.05824 21.7868 4.19407 20.3717L4.2278 20.0202L3.97848 19.7703C1.95599 17.7429 0.75 15.1105 0.75 12.25C0.75 5.98967 6.58549 0.75 14 0.75C21.4145 0.75 27.25 5.98967 27.25 12.25C27.25 18.5103 21.4145 23.75 14 23.75H13.999C12.678 23.7518 11.3624 23.5803 10.086 23.2398L9.80957 23.1661L9.55425 23.2952C8.70473 23.7249 6.8112 24.5407 3.67775 25.1626C3.44831 25.2081 3.21846 25.2514 2.98821 25.2925C3.07489 25.0698 3.15705 24.8453 3.23464 24.6192ZM14.0012 23.5C21.3152 23.4994 27 18.3386 27 12.25C27 6.16291 21.3146 1 14 1C6.68537 1 1 6.16291 1 12.25C1 15.0382 2.17378 17.6067 4.15516 19.5938L14.0012 23.5Z" stroke="#2A2238" stroke-width="1.5"/>
</svg>
